X:10
T:Fraher's
R:jig
E:11
M:6/8
I:speed 350
K:DMix
A3 GED|~D3 GED|~A3 GEA|~D3 DEG|\
A3 GED|~D3 GED|ABA GEA|~D3 D3:|*
ABA d2A|d2A AGE|GAB c2A|BGE E3|\
Add def|dcA AGE|ABA GEA|~D3 D3:|**
<end>
<start>
